X: 28989
T: Natterjack's
R: reel
M: 4/4
K: Amajor
|:E3 c decB|Acea gece|dB B2 Bcde|e/f/f fa gecA|
Ec c/c/c decB|Acea gece|dB B2 Bcdf|1 ecBd cAAF:|2 ecBd cAAf||
|:fece a2 f/f/f|efc2 BcAF|E3 F ABcd-|dBcA Bcdf|
fece a2 f/f/f|efc2 BcAF|E3 F ABcf|1 ecBd cAAf:|2 ecBd cAAF||

